X: 29077
T: Neili's
R: polka
M: 2/4
K: Dmajor
|:ed cA|ed cA|Ac ef|ge d2|
ed cA|ed cA|Ac ef|ge d2:|
|:ef ge|ed cA|ef ge|ed d2|
ef ge|ed cA|Ac ef|ge d2:|

